X:245
T:Breakfast at the Methés
S:Les Poules a Colin
Z:Olivia Hivon
M:4/4
L:1/8
K:Ddor
a3a- agfd | f2dc- cdf2 | g3g- gfg_a | gfdc fedc |
a3a- agfd | f2dc- cdde | fedc Bcdc | AGEF D4 ::
d2cd ABdB | cBAG BAGF | DFGD FGAD|BDDc DDc^c |
dABd ABdB | cBAG BAGF | DFGD G_AG2- | GFEF D4 :|
